**kern	**kern	**dynam
*part1	*part1	*part1
*staff2	*staff1	*
*I"Piano	*	*
*clefF4	*clefG2	*
*k[b-e-a-d-g-]	*k[b-e-a-d-g-]	*
=1	=1	=1
!	!LO:TX:a:B:t=poco riten.	!
(4C-X' 4A-	(4e-' 4f	.
4C-' 4A-	4e-' 4f	.
4C-' 4A-	4e-' 4f	.
4C-') 4A-	4e-') 4f	.
=	=	=
*	*^	*
1E-^ 1B-	1g-^ 1b-	8rg	.
.	.	4g- 4b-	.
*^	*	*	*
.	4EE-	.	.	.
.	.	.	4e-	.
.	4GG-	.	.	.
.	.	.	4g-	.
.	4BB-	.	.	.
.	.	.	8b-	.
*v	*v	*	*	*
*	*v	*v	*
=	=	=
(4AAn	8r	<
.	(4an	.
4C	.	.
.	4cc	.
4E-	.	.
.	4ee-	[
4G-	.	.
.	8gg-	.
=	=	=
*	*^	*
1E-^ 1F	1ee-^ 1ff	8rdd	.
.	.	4ee- 4ff	>
*^	*	*	*
.	4C	.	.	.
.	.	.	4cc	.
.	4AAn	.	.	.
.	.	.	4an	.
.	4FF)	.	.	.
.	.	.	8f)	.
*v	*v	*	*	*
*	*v	*v	*
=	=	=
3%2BB- 3%2B-	3%2d-^ 3%2f 3%2dd-	] f
3AA-X 3A-X	3c^ 3f 3cc	.
=	=	=
1GG- 1G-	1B-^ 1g- 1b-	.
=	=	=
*^	*	*
!	!	!	!LO:DY:a
4En^	1FF	8r	f
.	.	(4B- 4d- 4en	.
4F	.	.	.
.	.	4B- 4d- 4f	.
4G-	.	.	.
.	.	4B- 4d- 4g-	.
4F	.	.	.
.	.	8B- 8d- 8f	.
*v	*v	*	*
=	=	=
*-	*-	*-
!!!system-decoration: {(s1,s2)}
